X:1
T: Rural Felicity
C:
R:Jig
Q:180
K:D
M:6/8
L:1/16
|:A2|d4d2 d2e2d2|=c4E2 E2F2G2|A4A2 A2B2A2|F4D2 D2F2A2|
d4d2 d2e2d2|=c4E2 E2F2G2|A2B2A2 G2F2E2|1D6-D4A2:|2D6-D4z2|
f4d2 d4d2|d4f2 a2g2f2|e4d2 c4d2|e4f2 g2f2e2|
f4d2 d4d2|d4f2 a2g2f2|e2c2A2 A2B2c2|1d6-d4z2:|2d6-d4||
